X: 20164
T: Job Of Journeywork, The
R: hornpipe
M: 4/4
K: Dmajor
fe|:dcAG FGAB|(3=cBA BG A2fe|(3ded cA (3Bcd AF|GBAF D2FG|
(3ABA GA FAEA|DCDE FEFG|A2d2 (3Bcd ec|1 d2{e}dc d2fe:|2 d2{e}dc d2de||
|:f2ef gfef|dcAG A2de|(3fgf ef gfec|d2{e}dc defg|
3agf (3gfe ~f2fe|dcde f2fe|dcAG FGAB|=c2{d}cB c2Bc|
3d=cB (3cBA BGAF|GBAF [D2A,2]FG|(3ABA GA FAEA|DCDE FEFG|
A2d2 (3Bcd ec|1 d2{e}dc d2de:|2 d2{e}dc d2||

